proprietary/assets/icons/natuur-en-milieu/persoon-gooit-afval-weg.svg

<svg enable-background="new 0 0 64 64" height="64" viewBox="0 0 64 64" width="64" xmlns="http://www.w3.org/2000/svg"><path d="m0 0h64v64h-64z" fill="none"/><path d="m20 11.9c3.2 0 5-2.2 5-5.4 0-3.6-1.9-5.5-5-5.5-3.2 0-5 2.3-5 5.5 0 3.5 1.8 5.4 5 5.4zm18.1 15c.3-.2 4-1.9 4-1.9l-2-1.6c-1.5.5-4 2.5-4.6 4.2-.5 1.7 5.7 6.2 5.7 6.2s1.4-1.6 5.2-1.1c3.7.5 4.6-3 4.6-3l-4.1-4.4-8.9 1.9c-.1.1-.2-.2.1-.3zm6.6-8.6s-7.1-2.2-14.1-3.3c-6.6-1-9.4-1-11-1-1.2 0-5.9.1-8 1.6-4.6 3.3-4.8 13.5-4.5 19.5.1 3 2.5 3.9 3.9 3.9 0 0 0-3 0-5 0-3.8.4-8.1 1.5-11.1 0-.1.1-.2.1-.3s.1-.1.2-.1c.2 0 .2.1.2.2v40.4s5.4.2 5.6-5c.1-2.5.8-19.3.8-19.5s.2-.5.6-.5.6.3.6.5.7 17 .8 19.3c.2 5.3 5.6 5.1 5.6 5.1v-43.2c3.8.1 7.7.5 12.9 1.1 3.9.4 4.8-2.6 4.8-2.6zm10.3 17.7h-22.1c-.8 0-1.5.7-1.5 1.5s.7 1.5 1.5 1.5h.2s1.1 14.2 1.7 21.4c.1 1.1.9 2 2 2.1 2.4.3 4.8.4 7.2.4s4.8-.1 7.2-.4c1-.1 1.9-1.1 2-2.1.6-7.2 1.7-21.4 1.7-21.4h.1c.8 0 1.5-.7 1.5-1.5s-.6-1.5-1.5-1.5zm-19.8 3h4.4l.1 4h-4.2zm.5 6h4.1l.1 4h-3.9zm.4 6h3.9l.1 4h-3.6zm1 9.6c-.1 0-.2-.2-.2-.3-.1-1.1-.3-3.3-.3-3.3h3.6l.1 3.8c-1.1 0-2.2-.1-3.2-.2zm8.6.3c-.6 0-1.2 0-1.7 0s-1.2 0-1.7 0l-.1-3.9h3.7zm.2-5.9h-3.8l-.1-4h4zm.2-6h-4.2l-.1-4h4.4zm.2-6h-4.6l-.1-4h4.8zm4.8 17.3c0 .1-.2.3-.2.3-1.1.1-2.1.2-3.2.3l.1-3.8h3.6c0-.1-.2 2.1-.3 3.2zm.5-5.3h-3.6l.1-4h3.8zm.4-6h-3.9l.1-4h4.1zm.5-6h-4.2l.1-4h4.4z"/></svg>

<?xml version="1.0" encoding="utf-8"?>
<!-- Generator: Adobe Illustrator 22.1.0, SVG Export Plug-In . SVG Version: 6.00 Build 0)  -->
<!DOCTYPE svg PUBLIC "-//W3C//DTD SVG 1.1//EN" "http://www.w3.org/Graphics/SVG/1.1/DTD/svg11.dtd">
<svg version="1.1" xmlns="http://www.w3.org/2000/svg" xmlns:xlink="http://www.w3.org/1999/xlink" x="0px" y="0px" width="64px"
	 height="64px" viewBox="0 0 64 64" style="enable-background:new 0 0 64 64;" xml:space="preserve">
<style type="text/css">
	.st0{fill:none;}
</style>
<g id="Box">
	<rect class="st0" width="64" height="64"/>
</g>
<g id="Icon">
	<path d="M20,11.9c3.2,0,5-2.2,5-5.4C25,2.9,23.1,1,20,1c-3.2,0-5,2.3-5,5.5C15,10,16.8,11.9,20,11.9z M38.1,26.9
		c0.3-0.2,4-1.9,4-1.9l-2-1.6c-1.5,0.5-4,2.5-4.6,4.2c-0.5,1.7,5.7,6.2,5.7,6.2s1.4-1.6,5.2-1.1c3.7,0.5,4.6-3,4.6-3l-4.1-4.4
		l-8.9,1.9C37.9,27.3,37.8,27,38.1,26.9z M44.7,18.3c0,0-7.1-2.2-14.1-3.3c-6.6-1-9.4-1-11-1c-1.2,0-5.9,0.1-8,1.6
		C7,18.9,6.8,29.1,7.1,35.1C7.2,38.1,9.6,39,11,39c0,0,0-3,0-5c0-3.8,0.4-8.1,1.5-11.1c0-0.1,0.1-0.2,0.1-0.3c0-0.1,0.1-0.1,0.2-0.1
		c0.2,0,0.2,0.1,0.2,0.2c0,0.1,0,40.4,0,40.4s5.4,0.2,5.6-5c0.1-2.5,0.8-19.3,0.8-19.5c0-0.2,0.2-0.5,0.6-0.5s0.6,0.3,0.6,0.5
		c0,0.2,0.7,17,0.8,19.3C21.6,63.2,27,63,27,63l0-43.2c3.8,0.1,7.7,0.5,12.9,1.1C43.8,21.3,44.7,18.3,44.7,18.3z M55,36
		c0,0-22.1,0-22.1,0c-0.8,0-1.5,0.7-1.5,1.5c0,0.8,0.7,1.5,1.5,1.5h0.2c0,0,1.1,14.2,1.7,21.4c0.1,1.1,0.9,2,2,2.1
		c2.4,0.3,4.8,0.4,7.2,0.4s4.8-0.1,7.2-0.4c1-0.1,1.9-1.1,2-2.1c0.6-7.2,1.7-21.4,1.7-21.4H55c0.8,0,1.5-0.7,1.5-1.5
		C56.5,36.7,55.9,36,55,36z M35.2,39h4.4l0.1,4h-4.2L35.2,39z M35.7,45h4.1l0.1,4H36L35.7,45z M36.1,51H40l0.1,4h-3.6L36.1,51z
		 M37.1,60.6c-0.1,0-0.2-0.2-0.2-0.3c-0.1-1.1-0.3-3.3-0.3-3.3h3.6l0.1,3.8C39.2,60.8,38.1,60.7,37.1,60.6z M45.7,60.9
		c-0.6,0-1.2,0-1.7,0s-1.2,0-1.7,0L42.2,57h3.7L45.7,60.9z M45.9,55h-3.8L42,51H46L45.9,55z M46.1,49h-4.2l-0.1-4h4.4L46.1,49z
		 M46.3,43h-4.6l-0.1-4h4.8L46.3,43z M51.1,60.3c0,0.1-0.2,0.3-0.2,0.3c-1.1,0.1-2.1,0.2-3.2,0.3l0.1-3.8h3.6
		C51.4,57,51.2,59.2,51.1,60.3z M51.6,55h-3.6l0.1-4h3.8L51.6,55z M52,49h-3.9l0.1-4h4.1L52,49z M52.5,43h-4.2l0.1-4h4.4L52.5,43z"
		/>
</g>
</svg>
